X: 34117
T: Reel Des Voyageurs
R: reel
M: 4/4
K: Amajor
A2cA eAcA|EBce dBcA|EAce fefg|1 a2ed ceBe:|2 a2 ed cefg||
agae agae|f2ed cefg|1 a2 g2 ~f2 ed|f2ed cefg:|2 a2c2 f2 u(ed)|[M:3/2] vf2 ed c2 vE2 u[BE]2 v(3EEE||

